icons/folder-storybook.svg

<svg xmlns="http://www.w3.org/2000/svg" viewBox="0 0 32 32">
  <path d="M13.84376,7.53645l-1.28749-1.0729A2,2,0,0,0,11.27591,6H4A2,2,0,0,0,2,8V24a2,2,0,0,0,2,2H28a2,2,0,0,0,2-2V10a2,2,0,0,0-2-2H15.12412A2,2,0,0,1,13.84376,7.53645Z" style="fill: #ff4081"/>
  <g>
    <path d="M23.50593,15.81429c0,.54285,3.75472.28571,4.26212-.1C27.76805,11.97143,25.724,10,21.98375,10c-3.72572,0-5.81329,2-5.81329,5,0,5.21429,7.147,5.31429,7.147,8.15714a1.14722,1.14722,0,0,1-1.27574,1.28572c-1.14526,0-1.59467-.57143-1.53668-2.52857,0-.42858-4.34909-.55715-4.47957,0C15.69206,26.62857,18.67844,28,22.09973,28,25.39054,28,28,26.25714,28,23.11429c0-5.6-7.24849-5.44286-7.24849-8.21429a1.193,1.193,0,0,1,1.34822-1.28571c.52189,0,1.47869.1,1.39171,2.2Z" style="fill: #ffcdd2"/>
    <path d="M6,10.4923l.19231-4.67308H9.84615L10,10.33845a.28847.28847,0,0,1-.46154.23077L8.13462,9.45384,6.46154,10.72307A.28846.28846,0,0,1,6,10.4923Z" style="fill: #ffcdd2"/>
  </g>
</svg>

<svg xmlns="http://www.w3.org/2000/svg" viewBox="0 0 32 32"><path fill="#ff4081" d="m13.844 7.536-1.288-1.072A2 2 0 0 0 11.276 6H4a2 2 0 0 0-2 2v16a2 2 0 0 0 2 2h24a2 2 0 0 0 2-2V10a2 2 0 0 0-2-2H15.124a2 2 0 0 1-1.28-.464Z"/><path fill="#ffcdd2" d="M23.506 15.814c0 .543 3.755.286 4.262-.1 0-3.743-2.044-5.714-5.784-5.714-3.726 0-5.814 2-5.814 5 0 5.214 7.147 5.314 7.147 8.157a1.147 1.147 0 0 1-1.275 1.286c-1.146 0-1.595-.572-1.537-2.529 0-.428-4.35-.557-4.48 0C15.692 26.63 18.678 28 22.1 28c3.29 0 5.9-1.743 5.9-4.886 0-5.6-7.248-5.443-7.248-8.214a1.193 1.193 0 0 1 1.348-1.286c.522 0 1.478.1 1.391 2.2ZM6 10.492l.192-4.673h3.654L10 10.34a.288.288 0 0 1-.462.23L8.135 9.454l-1.673 1.27A.288.288 0 0 1 6 10.491Z"/></svg>
